components/icons/socials/email-icon.svg

<svg width="39" height="32" viewBox="0 0 39 32" fill="none" xmlns="http://www.w3.org/2000/svg">
<path fill-rule="evenodd" clip-rule="evenodd" d="M2.93701 1.87659L17.8553 12.5433C18.2335 12.8147 18.6654 12.9516 19.0968 12.9516C19.5283 12.9516 19.9602 12.8147 20.3383 12.5433L20.3406 12.5417L35.2566 1.87659L37.0015 4.31696L22.0877 14.9805C22.0879 14.9803 22.0874 14.9806 22.0877 14.9805C21.2128 15.6081 20.1715 15.9516 19.0968 15.9516C18.0224 15.9516 16.9821 15.6088 16.1074 14.9814C16.1069 14.9811 16.1065 14.9808 16.106 14.9805L1.19213 4.31696L2.93701 1.87659Z" fill="#CDB4F4"/>
<path fill-rule="evenodd" clip-rule="evenodd" d="M34.1936 3H4C3.44772 3 3 3.44772 3 4V28C3 28.5523 3.44772 29 3.99999 29H34.1936C34.7458 29 35.1936 28.5523 35.1936 28V4C35.1936 3.44771 34.7458 3 34.1936 3ZM4 0C1.79086 0 0 1.79086 0 4V28C0 30.2091 1.79086 32 3.99999 32H34.1936C36.4027 32 38.1936 30.2091 38.1936 28V4C38.1936 1.79086 36.4027 0 34.1936 0H4Z" fill="#CDB4F4"/>
</svg>

<?xml version="1.0" encoding="utf-8"?>
<!-- Generator: Adobe Illustrator 25.2.0, SVG Export Plug-In . SVG Version: 6.00 Build 0)  -->
<svg version="1.1" id="Layer_1" xmlns="http://www.w3.org/2000/svg" xmlns:xlink="http://www.w3.org/1999/xlink" x="0px" y="0px"
	 viewBox="0 0 38.2 32" style="enable-background:new 0 0 38.2 32;" xml:space="preserve">
<style type="text/css">
	.st0{fill-rule:evenodd;clip-rule:evenodd;fill:#CDB4F4;}
</style>
<path class="st0" d="M2.9,1.9l14.9,10.7c0.4,0.3,0.8,0.4,1.2,0.4c0.4,0,0.9-0.1,1.2-0.4l0,0L35.3,1.9L37,4.3L22.1,15c0,0,0,0,0,0
	c-0.9,0.6-1.9,1-3,1c-1.1,0-2.1-0.3-3-1c0,0,0,0,0,0L1.2,4.3L2.9,1.9z"/>
<path class="st0" d="M34.2,3H4C3.4,3,3,3.4,3,4v24c0,0.6,0.4,1,1,1h30.2c0.6,0,1-0.4,1-1V4C35.2,3.4,34.7,3,34.2,3z M4,0
	C1.8,0,0,1.8,0,4v24c0,2.2,1.8,4,4,4h30.2c2.2,0,4-1.8,4-4V4c0-2.2-1.8-4-4-4H4z"/>
</svg>
